images/finger1.svg

<svg width="14" height="16" viewBox="0 0 14 16" fill="none" xmlns="http://www.w3.org/2000/svg">
<path d="M12.3334 6C12.0873 6 11.8565 6.06706 11.6582 6.18391C11.5837 5.51856 11.0179 5 10.3334 5C10.0078 5 9.70869 5.11784 9.47628 5.31413C9.24287 4.92644 8.81806 4.66666 8.33337 4.66666C8.09087 4.66666 7.863 4.73175 7.66672 4.84569V1.33334C7.66669 0.597969 7.06872 0 6.33337 0C5.59803 0 5.00003 0.597969 5.00003 1.33334V10.2546C5.00003 10.4225 4.88934 10.5088 4.84181 10.5381C4.79428 10.5674 4.66634 10.6276 4.51759 10.5527L2.37697 9.48244C2.18197 9.38478 1.96356 9.33334 1.74547 9.33334C0.966811 9.33334 0.333374 9.96681 0.333374 10.7455V11C0.333374 11.0924 0.37178 11.1807 0.439155 11.2438L4.2865 14.8346C5.09181 15.5859 6.14197 16 7.24319 16H9.33334C11.7227 16 13.6667 14.056 13.6667 11.6667V7.33334C13.6667 6.59797 13.0687 6 12.3334 6ZM13 11.6667C13 13.6885 11.3552 15.3333 9.33337 15.3333H7.24322C6.31156 15.3333 5.4229 14.9831 4.74159 14.347L1.00003 10.8552V10.7455C1.00003 10.3343 1.33434 10 1.74547 10C1.86037 10 1.97594 10.0273 2.07881 10.0788L4.21944 11.1491C4.53162 11.3057 4.89553 11.2884 5.19241 11.1055C5.48928 10.9219 5.66669 10.6038 5.66669 10.2546V1.33334C5.66669 0.965844 5.96584 0.666687 6.33334 0.666687C6.70084 0.666687 7 0.965844 7 1.33334V6.33334C7 6.51759 7.14909 6.66669 7.33334 6.66669C7.51759 6.66669 7.66669 6.51759 7.66669 6.33334V6C7.66669 5.6325 7.96584 5.33334 8.33334 5.33334C8.70084 5.33334 9 5.6325 9 6V6.33334C9 6.334 9 6.33466 9 6.33531V6.33563C9.00131 6.51856 9.15006 6.66669 9.33334 6.66669C9.51759 6.66669 9.66669 6.51759 9.66669 6.33334V6.32812C9.66928 5.96322 9.96812 5.66666 10.3333 5.66666C10.7008 5.66666 11 5.96581 11 6.33331V7.33331C11 7.51756 11.1491 7.66666 11.3333 7.66666C11.5176 7.66666 11.6667 7.51756 11.6667 7.33331C11.6667 6.96581 11.9658 6.66666 12.3333 6.66666C12.7008 6.66666 13 6.96581 13 7.33334V11.6667Z" fill="black"/>
</svg>

<svg width="14" height="16" fill="none" xmlns="http://www.w3.org/2000/svg"><path d="M12.333 6c-.246 0-.476.067-.675.184A1.335 1.335 0 0 0 10.333 5c-.325 0-.624.118-.857.314a1.333 1.333 0 0 0-1.81-.468V1.333C7.667.598 7.07 0 6.334 0 5.598 0 5 .598 5 1.333v8.922c0 .167-.11.254-.158.283a.33.33 0 0 1-.324.015l-2.141-1.07a1.414 1.414 0 0 0-2.044 1.263V11c0 .092.039.18.106.244l3.848 3.59A4.32 4.32 0 0 0 7.242 16h2.09a4.338 4.338 0 0 0 4.334-4.333V7.333c0-.735-.598-1.333-1.334-1.333ZM13 11.667a3.67 3.67 0 0 1-3.667 3.666h-2.09c-.931 0-1.82-.35-2.501-.986L1 10.855v-.11a.746.746 0 0 1 1.079-.666l2.14 1.07c.313.157.677.14.973-.043a.994.994 0 0 0 .475-.851V1.333a.668.668 0 0 1 1.333 0v5a.333.333 0 1 0 .667 0V6A.668.668 0 0 1 9 6v.335a.334.334 0 0 0 .667-.002v-.005A.668.668 0 0 1 11 6.333v1a.333.333 0 1 0 .667 0 .667.667 0 0 1 1.333 0v4.334Z" fill="#000"/></svg>
